src/objects/book-paper/1F4D5.svg

<svg id="emoji" viewBox="0 0 72 72" xmlns="http://www.w3.org/2000/svg">
  <g id="grid">
    <path fill="#b3b3b3" d="M68,4V68H4V4H68m4-4H0V72H72V0Z"/>
    <path fill="none" stroke="#00a5ff" stroke-miterlimit="10" stroke-width="0.1" d="M12.923,10.9583H59.0769A1.9231,1.9231,0,0,1,61,12.8814V59.0352a1.9231,1.9231,0,0,1-1.9231,1.9231H12.9231A1.9231,1.9231,0,0,1,11,59.0352V12.8813A1.923,1.923,0,0,1,12.923,10.9583Z"/>
    <rect x="16" y="4" rx="2.2537" width="40" height="64" fill="none" stroke="#00a5ff" stroke-miterlimit="10" stroke-width="0.1"/>
    <rect x="16" y="4" rx="2.2537" width="40" height="64" transform="translate(72) rotate(90)" fill="none" stroke="#00a5ff" stroke-miterlimit="10" stroke-width="0.1"/>
    <circle cx="36" cy="36" r="29" fill="none" stroke="#00a5ff" stroke-miterlimit="10" stroke-width="0.1"/>
  </g>
  <g id="color">
    <polygon fill="#FFFFFF" stroke="none" points="12,58 59.8467,57.85 59.8467,12.15 15.6686,12.15 12,16"/>
    <path fill="#d22f27" stroke="none" stroke-linecap="round" stroke-linejoin="round" stroke-miterlimit="10" stroke-width="2" d="M55.0015,61h-43.003C11.447,61,11,60.553,11,60.0015v-43.003C11,16.447,11.447,16,11.9985,16h43.003 C55.553,16,56,16.447,56,16.9985v43.003C56,60.553,55.553,61,55.0015,61z"/>
  </g>
  <g id="hair"/>
  <g id="skin"/>
  <g id="skin-shadow"/>
  <g id="line">
    <path fill="none" stroke="#000000" stroke-linecap="round" stroke-linejoin="round" stroke-miterlimit="10" stroke-width="2" d="M11,17l4.9985-5h43.003C59.553,12,60,12.447,60,12.9985v43.003C60,56.553,59.553,57,59.0015,57"/>
    <path fill="none" stroke="#000000" stroke-linecap="round" stroke-linejoin="round" stroke-miterlimit="10" stroke-width="2" d="M55.0015,61h-43.003C11.447,61,11,60.553,11,60.0015v-43.003C11,16.447,11.447,16,11.9985,16h43.003 C55.553,16,56,16.447,56,16.9985v43.003C56,60.553,55.553,61,55.0015,61z"/>
  </g>
</svg>

<svg viewBox="0 0 72 72" xmlns="http://www.w3.org/2000/svg"><path fill="#b3b3b3" d="M68 4v64H4V4h64m4-4H0v72h72V0z"/><path fill="none" stroke="#00a5ff" stroke-miterlimit="10" stroke-width=".1" d="M12.923 10.958h46.154A1.923 1.923 0 0161 12.881v46.154a1.923 1.923 0 01-1.923 1.923H12.923A1.923 1.923 0 0111 59.035V12.881a1.923 1.923 0 011.923-1.923z"/><rect x="16" y="4" rx="2.254" width="40" height="64" fill="none" stroke="#00a5ff" stroke-miterlimit="10" stroke-width=".1"/><rect x="16" y="4" rx="2.254" width="40" height="64" transform="rotate(90 36 36)" fill="none" stroke="#00a5ff" stroke-miterlimit="10" stroke-width=".1"/><circle cx="36" cy="36" r="29" fill="none" stroke="#00a5ff" stroke-miterlimit="10" stroke-width=".1"/><g stroke-linecap="round" stroke-miterlimit="10" stroke-width="6" stroke="#fff" fill="none" stroke-linejoin="round"><path d="M11 17l4.998-5h43.004c.551 0 .998.447.998.998v43.004a.998.998 0 01-.998.998"/><path d="M55.002 61H11.998a.998.998 0 01-.998-.998V16.998c0-.551.447-.998.998-.998h43.004c.551 0 .998.447.998.998v43.004a.998.998 0 01-.998.998z"/></g><path fill="#FFF" d="M12 58l47.847-.15v-45.7H15.669L12 16z"/><path fill="#d22f27" d="M55.002 61H11.998a.998.998 0 01-.998-.998V16.998c0-.551.447-.998.998-.998h43.004c.551 0 .998.447.998.998v43.004a.998.998 0 01-.998.998z"/><g fill="none" stroke="#000" stroke-linecap="round" stroke-linejoin="round" stroke-miterlimit="10" stroke-width="2"><path d="M11 17l4.998-5h43.004c.551 0 .998.447.998.998v43.004a.998.998 0 01-.998.998"/><path d="M55.002 61H11.998a.998.998 0 01-.998-.998V16.998c0-.551.447-.998.998-.998h43.004c.551 0 .998.447.998.998v43.004a.998.998 0 01-.998.998z"/></g></svg>
